static/images/back_arrow.svg

<svg width="9" height="16" viewBox="0 0 9 16" fill="none" xmlns="http://www.w3.org/2000/svg">
<path d="M0 7.99555C0 8.3606 0.12894 8.66333 0.412607 8.94825L7.03152 15.6528C7.24642 15.8843 7.52149 16 7.83954 16C8.48424 16 9 15.4658 9 14.798C9 14.4597 8.87106 14.1658 8.63897 13.9254L2.75931 7.98664L8.63897 2.06567C8.87106 1.82526 9 1.52254 9 1.1931C9 0.52532 8.48424 0 7.83954 0C7.51289 0 7.24642 0.106845 7.03152 0.338342L0.412607 7.04285C0.12894 7.32777 0.00859599 7.6305 0 7.99555Z" fill="currentColor"/>
</svg>

<svg xmlns="http://www.w3.org/2000/svg" width="9" height="16" fill="none"><path fill="currentColor" d="M0 7.996c0 .365.129.667.413.952l6.619 6.705c.214.231.49.347.808.347.644 0 1.16-.534 1.16-1.202 0-.338-.129-.632-.361-.873l-5.88-5.938 5.88-5.921c.232-.24.361-.543.361-.873C9 .525 8.484 0 7.84 0c-.327 0-.594.107-.808.338L.412 7.043A1.316 1.316 0 0 0 0 7.996Z"/></svg>
